X:1
T: Chailleach Oidhche
C:
R:Strathspey
Q: 128
K:A
M:4/4
L:1/16
|:e2|AA3 e3A fA3 e3=g|=GG3 d3B =g3e d2B2|AA3 e3A fA3 e3=g|=GG3 B3d e3A A2e2|
AA3 e3A fA3 e3=g|=GG3 d3B =g3e d2B2|AA3 e3A fA3 e3=g|=GG3 B3d e3A A2g2|
a4 e3g a3e c3A|=g4 d3g B3g B=G3|a4 e3g a3e c3A|B=G3 Bd3 eA3 A2g2|
a4 e3g a3e c3A|=g4 d3g B3g B=G3|A3B =c3d e3d B3=g|=G3A B3d eA3 A2:|
